src/widgets/widget-areachart.svg

<?xml version="1.0" encoding="UTF-8"?>
<svg xmlns="http://www.w3.org/2000/svg" xmlns:xlink="http://www.w3.org/1999/xlink" width="24pt" height="24pt" viewBox="0 0 24 24" version="1.1">
<g id="surface1">
<path style=" stroke:none;fill-rule:nonzero;fill:rgb(0%,0%,0%);fill-opacity:1;" d="M 1.417969 22.628906 L 22.800781 22.742188 L 22.800781 24 L 0 24 L 0 0 L 1.417969 0 Z M 22.472656 1.828125 C 21.710938 1.828125 21.054688 2.515625 20.945312 3.3125 L 17.238281 5.257812 C 16.910156 5.027344 16.582031 4.800781 16.144531 4.800781 C 15.273438 4.800781 14.617188 5.484375 14.617188 6.398438 C 14.617188 6.855469 14.835938 7.3125 15.164062 7.65625 L 14.726562 10.628906 C 14.183594 10.742188 13.855469 11.199219 13.636719 11.65625 L 10.800781 11.886719 C 10.582031 11.3125 10.035156 10.972656 9.492188 10.972656 C 8.617188 10.972656 7.964844 11.65625 7.964844 12.570312 C 7.964844 12.800781 7.964844 12.914062 8.074219 13.144531 L 4.035156 19.3125 C 3.925781 19.3125 3.925781 19.3125 3.816406 19.3125 C 3.164062 19.3125 2.617188 19.886719 2.617188 20.570312 C 2.617188 21.257812 3.164062 21.828125 3.816406 21.828125 C 4.472656 21.828125 5.019531 21.257812 5.019531 20.570312 C 5.019531 20.457031 5.019531 20.230469 4.910156 20.113281 L 8.835938 14.058594 C 9.054688 14.171875 9.164062 14.171875 9.382812 14.171875 C 10.035156 14.171875 10.582031 13.714844 10.800781 13.027344 L 13.636719 12.800781 C 13.855469 13.371094 14.398438 13.714844 14.945312 13.714844 C 15.816406 13.714844 16.472656 13.027344 16.472656 12.113281 C 16.472656 11.542969 16.144531 11.085938 15.710938 10.742188 L 16.363281 8 C 17.128906 7.886719 17.671875 7.199219 17.671875 6.398438 L 21.382812 4.570312 C 21.710938 4.914062 22.035156 5.027344 22.472656 5.027344 C 23.34375 5.027344 24 4.34375 24 3.429688 C 24 2.515625 23.34375 1.828125 22.472656 1.828125 Z M 22.472656 1.828125 "/>
</g>
</svg>

<?xml version="1.0" encoding="utf-8"?>
<!-- Generator: Adobe Illustrator 21.1.0, SVG Export Plug-In . SVG Version: 6.00 Build 0)  -->
<svg version="1.1" id="Layer_1" xmlns="http://www.w3.org/2000/svg" xmlns:xlink="http://www.w3.org/1999/xlink" x="0px" y="0px"
	 viewBox="0 0 24 24" style="enable-background:new 0 0 24 24;" xml:space="preserve">
<g id="surface1">
	<path d="M1.4,22.6l21.4,0.1V24H0V0h1.4V22.6z M22.5,1.8c-0.8,0-1.4,0.7-1.5,1.5l-3.7,1.9c-0.3-0.2-0.7-0.5-1.1-0.5
		c-0.9,0-1.5,0.7-1.5,1.6c0,0.5,0.2,0.9,0.5,1.3l-0.4,3c-0.5,0.1-0.9,0.6-1.1,1l-2.8,0.2C10.6,11.3,10,11,9.5,11
		C8.6,11,8,11.7,8,12.6c0,0.2,0,0.3,0.1,0.6l-4,6.2c-0.1,0-0.1,0-0.2,0c-0.7,0-1.2,0.6-1.2,1.3c0,0.7,0.5,1.3,1.2,1.3
		c0.7,0,1.2-0.6,1.2-1.3c0-0.1,0-0.3-0.1-0.5l3.9-6.1c0.2,0.1,0.3,0.1,0.5,0.1c0.7,0,1.2-0.5,1.4-1.1l2.8-0.2
		c0.2,0.6,0.8,0.9,1.3,0.9c0.9,0,1.5-0.7,1.5-1.6c0-0.6-0.3-1-0.8-1.4L16.4,8c0.8-0.1,1.3-0.8,1.3-1.6l3.7-1.8C21.7,4.9,22,5,22.5,5
		C23.3,5,24,4.3,24,3.4C24,2.5,23.3,1.8,22.5,1.8z"/>
</g>
</svg>
